X:125
%%etbk:tnset id:44,pos:2,rep:3x,ant:
%%etbk:wsite http://www.thesession.org/tunes/display/1552
%%etbk:pldat 2016-05-26T18:23,2015-03-25T18:33,2015-02-02T19:16,2014-04-27T13:20,2014-03-15T16:17,2014-02-16T14:05,2013-10-04T15:12,2013-05-21T17:37
T: Lucy Campbell's
Z: Piano Box Version by Martin Fleischmann
H: Created 2013-02-19 /  Last Modified 2013-02-19
M: 4/4
L: 1/8
R: reel
K: Dmaj
|: "D"!4!A!1!D !3!(3D!2!D!1!D !1!D3!5!B | !4!A!1!D!2!F!4!A "A"!5!B!1!E !3!(3E!2!E!1!E | "D"!4!A2!2!F!1!A !3!d2!5!fe | !3!d!2!B!1!A!2!F !4!A!1!D D2 :|
"D"!3!dBAB defe | !3!d3!1!A "A"!2!B!1!E !3!(3E!2!E!1!E | "D"!3!dBAB defe | !3!d!2!B!1!A!2!F !4!A!1!D D2 |
"D"!3!dBAB defe | "G"!3!d!1!B !3!(3B!2!B!1!B !5!g!1!B !3!(3B!2!B!1!B | "D"!3!dBAB defe | !3!d!2!B!1!A!2!F !4!A!1!D D2 ||
"D"!5!a3f defg | !5!a2!2!fa "A"!5!b!1!e !3!(3e!2!e!1!e | "D"!5!a3f dffe | !1!d!2!B!1!A!2!F !4!A!1!D D2 |
"D"!5!a3f defg | !5!a2!2!fa !5!bg!1!e!3!f | "G"!4!g3e "D"!3!f3e | !1!d!2!B!1!A!2!F !4!A!1!D D2 ||
"D"!1!d2!3!f{g}f dfef | !1!d!3!f!2!f!3!f !5!afef | !1!d!3!ffe f2{g}fe | !1!d!2!B!1!A!2!F !4!A!1!D D2 |
"D"!1!d2!3!f{g}f dfef | !1!d!3!f!2!f!3!f !5!afdf | "G"!4!g3e "D"!3!f3e | !1!d!2!B!1!A!2!F !4!A!1!D D2 ||


